svgs/duotone/square-t.svg

<svg xmlns="http://www.w3.org/2000/svg" viewBox="0 0 448 512"><!-- Font Awesome Pro 6.0.0-alpha2 by @fontawesome - https://fontawesome.com License - https://fontawesome.com/license (Commercial License) --><defs><style>.fa-secondary{opacity:.4}</style></defs><path d="M384 32H64C28.654 32 0 60.654 0 96V416C0 451.346 28.654 480 64 480H384C419.346 480 448 451.346 448 416V96C448 60.654 419.346 32 384 32ZM328 176H248V360C248 373.25 237.25 384 224 384S200 373.25 200 360V176H120C106.75 176 96 165.25 96 152S106.75 128 120 128H328C341.25 128 352 138.75 352 152S341.25 176 328 176Z" class="fa-secondary"/><path d="M328 128H120C106.75 128 96 138.75 96 152S106.75 176 120 176H200V360C200 373.25 210.75 384 224 384S248 373.25 248 360V176H328C341.25 176 352 165.25 352 152S341.25 128 328 128Z" class="fa-primary"/></svg>

<svg xmlns="http://www.w3.org/2000/svg" viewBox="0 0 448 512"><!--! Font Awesome Pro 6.3.0 by @fontawesome - https://fontawesome.com License - https://fontawesome.com/license (Commercial License) Copyright 2023 Fonticons, Inc. --><defs><style>.fa-secondary{opacity:.4}</style></defs><path class="fa-primary" d="M328 128h-208C106.8 128 96 138.8 96 152S106.8 176 120 176h80v184C200 373.3 210.8 384 224 384s24-10.75 24-24V176h80C341.3 176 352 165.3 352 152S341.3 128 328 128z"/><path class="fa-secondary" d="M384 32H64C28.65 32 0 60.65 0 96v320c0 35.35 28.65 64 64 64h320c35.35 0 64-28.65 64-64V96C448 60.65 419.3 32 384 32zM328 176h-80v184c0 13.25-10.75 24-24 24s-24-10.75-24-24V176h-80C106.8 176 96 165.3 96 152S106.8 128 120 128h208C341.3 128 352 138.8 352 152S341.3 176 328 176z"/></svg>
